X:58
T:Dan Sweeney's* 2 (polka) 
B:CRE2.127 (gan ainm)
F:file ID: cre.2/058dan_s_2
L:1/8
M:2/4
R:polka
Q:260
K:A
AF EF|AB ce|fe ce/c/|BA F2|
AF EF|AB ce|fe ce/c/|BA A2:|
fe ce|fe fa|fe ce/c/|BA F2|
AF EF|AB ce|fe ce/c/|BA A2:|

%%%

